src/assets/icons/chains/moonriver.svg

<svg width="32" height="32" viewBox="0 0 32 32" fill="none" xmlns="http://www.w3.org/2000/svg">
<rect width="32" height="32" fill="white"/>
<path d="M15.7843 4.47986C14.6518 4.47986 13.5303 4.70294 12.4839 5.13636C11.4376 5.56978 10.4869 6.20505 9.68603 7.0059C8.8852 7.80675 8.24995 8.7575 7.81656 9.80386C7.38317 10.8502 7.16012 11.9717 7.16016 13.1043C7.16036 13.6491 7.21154 14.1928 7.31303 14.7281L8.42711 13.965C10.3858 12.6217 13.5631 12.6217 15.5213 13.965L16.6903 14.7657L17.3239 15.2011C19.0894 16.4107 21.9493 16.4107 23.7131 15.2011L24.2329 14.8452C24.4897 13.5918 24.4646 12.297 24.1593 11.0544C23.8541 9.81193 23.2764 8.65284 22.468 7.66109C21.6597 6.66933 20.6409 5.86973 19.4855 5.32017C18.3301 4.77062 17.0669 4.48486 15.7874 4.48358L15.7843 4.47986Z" fill="#F2B705"/>
<path d="M20.6303 18.2847C19.3309 18.2847 18.0884 17.9322 17.1529 17.291L15.3517 16.0565C14.4894 15.4637 13.3314 15.1374 12.0941 15.1374C10.8567 15.1374 9.69838 15.4613 8.83606 16.0565L7.67146 16.854C7.61666 16.892 7.55487 16.9189 7.48966 16.9329C7.42444 16.947 7.35709 16.9481 7.29147 16.936C7.22585 16.9239 7.16326 16.899 7.10731 16.8627C7.05135 16.8264 7.00314 16.7793 6.96544 16.7243C6.92775 16.6692 6.90131 16.6073 6.88766 16.5419C6.87401 16.4766 6.87341 16.4093 6.88589 16.3437C6.89838 16.2782 6.9237 16.2158 6.96041 16.1601C6.99712 16.1043 7.04448 16.0564 7.09978 16.0191L8.26378 15.2217C9.2935 14.5153 10.6529 14.127 12.0936 14.127C13.5343 14.127 14.8934 14.5153 15.9231 15.2217L17.7243 16.4561C18.599 16.9914 19.6044 17.2747 20.6298 17.2747C21.6552 17.2747 22.6607 16.9914 23.5353 16.4561L24.2193 15.9882C24.2741 15.9494 24.336 15.922 24.4015 15.9074C24.4669 15.8928 24.5346 15.8914 24.6007 15.9033C24.6667 15.9151 24.7297 15.94 24.786 15.9764C24.8423 16.0128 24.8908 16.06 24.9287 16.1154C24.9666 16.1707 24.9931 16.233 25.0067 16.2987C25.0203 16.3644 25.0207 16.4321 25.0078 16.4979C24.995 16.5638 24.9692 16.6264 24.9319 16.6821C24.8947 16.7379 24.8467 16.7857 24.7908 16.8227L24.1068 17.2908C23.1671 17.9341 21.9297 18.2847 20.6303 18.2847Z" fill="#53CBC8"/>
<path d="M12.057 21.9065V17.0337C12.0532 16.9312 12.0575 16.8285 12.07 16.7267C12.0851 16.5926 12.1491 16.4688 12.2498 16.379C12.3504 16.2891 12.4807 16.2395 12.6156 16.2396C12.7463 16.2432 12.8712 16.2948 12.9662 16.3847C13.0612 16.4746 13.1197 16.5964 13.1305 16.7267C13.1512 16.8959 13.1571 17.0665 13.1483 17.2367V26.952C13.1191 27.312 12.8935 27.5497 12.5897 27.5433C12.2858 27.5368 12.0665 27.2899 12.0652 26.9245V23.6863L12.057 21.9065Z" fill="#53CBC8"/>
<path d="M11.032 19.4539V21.8754C11.032 22.2898 10.811 22.5641 10.4978 22.5543C10.1846 22.5444 9.94724 22.2653 9.9458 21.8703V17.0294C9.9458 16.6053 10.1928 16.3192 10.5142 16.3356C10.8357 16.3521 11.0276 16.6085 11.0292 17.0322C11.0336 17.8396 11.032 18.6467 11.032 19.4539Z" fill="#53CBC8"/>
<path d="M14.1779 19.4508V17.7487C14.1779 17.354 14.3873 17.0991 14.6992 17.0991C15.0111 17.0991 15.2512 17.3622 15.2548 17.7339C15.2666 18.8926 15.2666 20.0506 15.2548 21.2082C15.2548 21.6027 15.0224 21.8397 14.7028 21.8367C14.3832 21.8337 14.1785 21.5911 14.1748 21.187V19.4491L14.1779 19.4508Z" fill="#53CBC8"/>
<path d="M7.83405 19.8048V18.1023C7.83405 17.7079 8.04358 17.4529 8.35534 17.4529C8.6671 17.4529 8.90733 17.7159 8.91105 18.0877C8.92169 19.2463 8.92169 20.4044 8.91105 21.5619C8.91105 21.9565 8.67693 22.1935 8.35905 22.1904C8.04117 22.1872 7.83453 21.9447 7.83105 21.5407V19.8032L7.83405 19.8048Z" fill="#53CBC8"/>
<path d="M16.8217 18.3562H16.8233C16.965 18.3563 17.1009 18.4126 17.2011 18.5129C17.3013 18.6131 17.3576 18.7491 17.3576 18.8908V19.8165C17.3576 19.9582 17.3013 20.0941 17.2011 20.1943C17.1009 20.2945 16.965 20.3508 16.8233 20.3508H16.8217C16.68 20.3508 16.544 20.2946 16.4438 20.1943C16.3435 20.0941 16.2872 19.9582 16.2871 19.8165V18.8908C16.2871 18.749 16.3435 18.6131 16.4437 18.5128C16.544 18.4126 16.6799 18.3562 16.8217 18.3562Z" fill="#53CBC8"/>
<path d="M18.94 19.1665H18.9416C19.0833 19.1666 19.2192 19.2229 19.3194 19.3232C19.4196 19.4234 19.4759 19.5594 19.4759 19.7011V24.8931C19.4759 24.9633 19.4621 25.0328 19.4352 25.0976C19.4084 25.1624 19.369 25.2213 19.3194 25.2709C19.2698 25.3206 19.2109 25.3599 19.146 25.3868C19.0812 25.4136 19.0117 25.4274 18.9416 25.4274H18.94C18.8698 25.4274 18.8004 25.4136 18.7355 25.3868C18.6707 25.3599 18.6118 25.3206 18.5622 25.2709C18.5126 25.2213 18.4732 25.1624 18.4464 25.0976C18.4196 25.0328 18.4057 24.9633 18.4058 24.8931V19.7011C18.4057 19.5594 18.462 19.4234 18.5622 19.3232C18.6624 19.2229 18.7983 19.1666 18.94 19.1665Z" fill="#53CBC8"/>
<path d="M21.043 19.3679H21.0446C21.1863 19.3679 21.3223 19.4242 21.4225 19.5244C21.5228 19.6246 21.5791 19.7605 21.5792 19.9023V24.315C21.5792 24.3852 21.5653 24.4547 21.5384 24.5195C21.5115 24.5843 21.4722 24.6432 21.4225 24.6928C21.3729 24.7424 21.3139 24.7818 21.2491 24.8086C21.1843 24.8354 21.1148 24.8492 21.0446 24.8492H21.043C20.9729 24.8492 20.9034 24.8354 20.8386 24.8086C20.7738 24.7817 20.7149 24.7424 20.6652 24.6928C20.6156 24.6432 20.5763 24.5843 20.5494 24.5195C20.5226 24.4547 20.5088 24.3852 20.5088 24.315V19.9024C20.5088 19.8322 20.5226 19.7627 20.5494 19.6979C20.5762 19.633 20.6156 19.5741 20.6652 19.5245C20.7148 19.4748 20.7737 19.4355 20.8385 19.4086C20.9034 19.3818 20.9729 19.3679 21.043 19.3679Z" fill="#53CBC8"/>
<path d="M23.1758 18.8645H23.1774C23.3191 18.8645 23.455 18.9208 23.5553 19.021C23.6555 19.1212 23.7118 19.2571 23.7118 19.3989V21.3022C23.7117 21.4439 23.6554 21.5798 23.5552 21.68C23.455 21.7802 23.3191 21.8365 23.1774 21.8365H23.1758C23.1057 21.8365 23.0362 21.8227 22.9714 21.7959C22.9065 21.769 22.8476 21.7296 22.798 21.68C22.7484 21.6304 22.7091 21.5715 22.6822 21.5067C22.6554 21.4418 22.6416 21.3723 22.6416 21.3022V19.399C22.6416 19.3288 22.6554 19.2593 22.6822 19.1945C22.709 19.1296 22.7484 19.0707 22.798 19.0211C22.8476 18.9714 22.9065 18.9321 22.9713 18.9052C23.0362 18.8783 23.1057 18.8645 23.1758 18.8645Z" fill="#53CBC8"/>
</svg>

<svg xmlns="http://www.w3.org/2000/svg" width="32" height="32" fill="none" viewBox="0 0 32 32">
  <path fill="#000" d="M0 0h32v32H0z"/>
  <path fill="#F2B705" d="M15.784 4.48a8.624 8.624 0 0 0-8.471 10.248l1.114-.763c1.959-1.343 5.136-1.343 7.094 0l1.17.8.633.436c1.765 1.21 4.625 1.21 6.389 0l.52-.356a8.63 8.63 0 0 0-8.446-10.361l-.003-.004Z"/>
  <path fill="#53CBC8" d="M20.63 18.285c-1.299 0-2.541-.353-3.477-.994l-1.801-1.234c-.862-.593-2.02-.92-3.258-.92-1.237 0-2.395.324-3.258.92l-1.164.797a.507.507 0 0 1-.786-.51.505.505 0 0 1 .214-.325l1.164-.797c1.03-.707 2.39-1.095 3.83-1.095s2.8.388 3.83 1.095l1.8 1.234a5.567 5.567 0 0 0 5.812 0l.684-.468a.507.507 0 1 1 .571.835l-.684.468c-.94.643-2.177.994-3.476.994Z"/>
  <path fill="#53CBC8" d="M12.057 21.907v-4.873c-.004-.103 0-.205.013-.307a.55.55 0 0 1 .545-.487.532.532 0 0 1 .515.487c.021.169.027.34.018.51v9.715c-.03.36-.255.598-.559.591-.303-.006-.523-.253-.524-.618v-3.239l-.008-1.78Zm-1.025-2.453v2.422c0 .414-.221.688-.534.678-.313-.01-.55-.288-.552-.683V17.03c0-.425.247-.71.568-.694.322.016.514.273.515.696.005.808.003 1.615.003 2.422Zm3.146-.004v-1.7c0-.395.21-.65.521-.65.312 0 .552.263.556.635.011 1.159.011 2.317 0 3.474 0 .395-.233.632-.552.629-.32-.003-.525-.246-.528-.65V19.45l.003.002Zm-6.344.355v-1.703c0-.394.21-.649.521-.649.312 0 .552.263.556.635.01 1.158.01 2.316 0 3.474 0 .395-.234.632-.552.628-.318-.003-.524-.245-.528-.65v-1.737l.003.002Zm8.988-1.449h.002a.534.534 0 0 1 .534.535v.926a.535.535 0 0 1-.535.534h-.001a.535.535 0 0 1-.535-.534v-.926a.534.534 0 0 1 .535-.535Zm2.118.811h.002a.534.534 0 0 1 .534.534v5.192a.535.535 0 0 1-.534.535h-.002a.533.533 0 0 1-.534-.535v-5.192a.534.534 0 0 1 .534-.534Zm2.103.201h.002a.535.535 0 0 1 .534.535v4.412a.535.535 0 0 1-.535.534h-.001a.533.533 0 0 1-.534-.534v-4.412a.531.531 0 0 1 .534-.535Zm2.133-.503h.001a.534.534 0 0 1 .535.534v1.903a.535.535 0 0 1-.535.535h-.001a.534.534 0 0 1-.534-.535V19.4a.532.532 0 0 1 .534-.534Z"/>
</svg>
